images/175540.svg

<?xml version="1.0" encoding="UTF-8"?>
<svg xmlns="http://www.w3.org/2000/svg" xmlns:xlink="http://www.w3.org/1999/xlink" width="300pt" height="300pt" viewBox="0 0 300 300" version="1.1">
<defs>
<g>
<symbol overflow="visible" id="glyph0-0">
<path style="stroke:none;" d="M 0.453125 1.59375 L 0.453125 -6.34375 L 4.953125 -6.34375 L 4.953125 1.59375 Z M 0.953125 1.09375 L 4.453125 1.09375 L 4.453125 -5.84375 L 0.953125 -5.84375 Z M 0.953125 1.09375 "/>
</symbol>
<symbol overflow="visible" id="glyph0-1">
<path style="stroke:none;" d="M 0.890625 -6.5625 L 2.078125 -6.5625 L 4.984375 -1.078125 L 4.984375 -6.5625 L 5.84375 -6.5625 L 5.84375 0 L 4.65625 0 L 1.75 -5.484375 L 1.75 0 L 0.890625 0 Z M 0.890625 -6.5625 "/>
</symbol>
<symbol overflow="visible" id="glyph0-2">
<path style="stroke:none;" d="M 0.890625 -6.5625 L 1.765625 -6.5625 L 1.765625 -3.875 L 5 -3.875 L 5 -6.5625 L 5.890625 -6.5625 L 5.890625 0 L 5 0 L 5 -3.125 L 1.765625 -3.125 L 1.765625 0 L 0.890625 0 Z M 0.890625 -6.5625 "/>
</symbol>
<symbol overflow="visible" id="glyph0-3">
<path style="stroke:none;" d="M 3.546875 -5.953125 C 2.898438 -5.953125 2.382812 -5.710938 2 -5.234375 C 1.625 -4.753906 1.4375 -4.101562 1.4375 -3.28125 C 1.4375 -2.445312 1.625 -1.789062 2 -1.3125 C 2.382812 -0.832031 2.898438 -0.59375 3.546875 -0.59375 C 4.191406 -0.59375 4.703125 -0.832031 5.078125 -1.3125 C 5.453125 -1.789062 5.640625 -2.445312 5.640625 -3.28125 C 5.640625 -4.101562 5.453125 -4.753906 5.078125 -5.234375 C 4.703125 -5.710938 4.191406 -5.953125 3.546875 -5.953125 Z M 3.546875 -6.6875 C 4.460938 -6.6875 5.195312 -6.375 5.75 -5.75 C 6.300781 -5.132812 6.578125 -4.3125 6.578125 -3.28125 C 6.578125 -2.238281 6.300781 -1.410156 5.75 -0.796875 C 5.195312 -0.179688 4.460938 0.125 3.546875 0.125 C 2.617188 0.125 1.878906 -0.179688 1.328125 -0.796875 C 0.773438 -1.410156 0.5 -2.238281 0.5 -3.28125 C 0.5 -4.3125 0.773438 -5.132812 1.328125 -5.75 C 1.878906 -6.375 2.617188 -6.6875 3.546875 -6.6875 Z M 3.546875 -6.6875 "/>
</symbol>
<symbol overflow="visible" id="glyph1-0">
<path style="stroke:none;" d="M 0.40625 1.421875 L 0.40625 -5.640625 L 4.40625 -5.640625 L 4.40625 1.421875 Z M 0.84375 0.96875 L 3.953125 0.96875 L 3.953125 -5.1875 L 0.84375 -5.1875 Z M 0.84375 0.96875 "/>
</symbol>
<symbol overflow="visible" id="glyph1-1">
<path style="stroke:none;" d="M 1.53125 -0.671875 L 4.296875 -0.671875 L 4.296875 0 L 0.59375 0 L 0.59375 -0.671875 C 0.882812 -0.972656 1.289062 -1.382812 1.8125 -1.90625 C 2.332031 -2.4375 2.65625 -2.773438 2.78125 -2.921875 C 3.039062 -3.203125 3.21875 -3.441406 3.3125 -3.640625 C 3.414062 -3.835938 3.46875 -4.03125 3.46875 -4.21875 C 3.46875 -4.53125 3.359375 -4.785156 3.140625 -4.984375 C 2.921875 -5.179688 2.640625 -5.28125 2.296875 -5.28125 C 2.046875 -5.28125 1.78125 -5.234375 1.5 -5.140625 C 1.226562 -5.054688 0.9375 -4.925781 0.625 -4.75 L 0.625 -5.546875 C 0.945312 -5.679688 1.242188 -5.78125 1.515625 -5.84375 C 1.796875 -5.90625 2.050781 -5.9375 2.28125 -5.9375 C 2.882812 -5.9375 3.363281 -5.785156 3.71875 -5.484375 C 4.082031 -5.179688 4.265625 -4.78125 4.265625 -4.28125 C 4.265625 -4.039062 4.21875 -3.8125 4.125 -3.59375 C 4.03125 -3.375 3.867188 -3.117188 3.640625 -2.828125 C 3.566406 -2.753906 3.351562 -2.535156 3 -2.171875 C 2.65625 -1.816406 2.164062 -1.316406 1.53125 -0.671875 Z M 1.53125 -0.671875 "/>
</symbol>
</g>
</defs>
<g id="surface44825">
<rect x="0" y="0" width="300" height="300" style="fill:rgb(100%,100%,100%);fill-opacity:1;stroke:none;"/>
<path style="fill:none;stroke-width:1.2;stroke-linecap:butt;stroke-linejoin:miter;stroke:rgb(0%,0%,0%);stroke-opacity:1;stroke-miterlimit:10;" d="M 35.25 148.769531 L 55.390625 140.664062 "/>
<path style="fill:none;stroke-width:1.2;stroke-linecap:butt;stroke-linejoin:miter;stroke:rgb(0%,0%,0%);stroke-opacity:1;stroke-miterlimit:10;" d="M 55.390625 140.664062 L 58.445312 119.164062 "/>
<path style="fill:none;stroke-width:1.2;stroke-linecap:butt;stroke-linejoin:miter;stroke:rgb(0%,0%,0%);stroke-opacity:1;stroke-miterlimit:10;" d="M 55.390625 140.664062 L 63.9375 147.359375 "/>
<path style="fill:none;stroke-width:1.2;stroke-linecap:butt;stroke-linejoin:miter;stroke:rgb(0%,0%,100%);stroke-opacity:1;stroke-miterlimit:10;" d="M 63.9375 147.359375 L 72.484375 154.054688 "/>
<path style="fill:none;stroke-width:1.2;stroke-linecap:butt;stroke-linejoin:miter;stroke:rgb(0%,0%,100%);stroke-opacity:1;stroke-miterlimit:10;" d="M 72.484375 154.054688 L 82.554688 150 "/>
<path style="fill:none;stroke-width:1.2;stroke-linecap:butt;stroke-linejoin:miter;stroke:rgb(0%,0%,0%);stroke-opacity:1;stroke-miterlimit:10;" d="M 82.554688 150 L 92.625 145.945312 "/>
<path style=" stroke:none;fill-rule:nonzero;fill:rgb(100%,100%,100%);fill-opacity:1;" d="M 65.484375 148.554688 L 79.484375 148.554688 L 79.484375 159.554688 L 65.484375 159.554688 Z M 65.484375 148.554688 "/>
<g style="fill:rgb(0%,0%,100%);fill-opacity:1;">
  <use xlink:href="#glyph0-1" x="65.484375" y="157.217773"/>
  <use xlink:href="#glyph0-2" x="72.461914" y="157.217773"/>
</g>
<path style=" stroke:none;fill-rule:nonzero;fill:rgb(0%,0%,0%);fill-opacity:1;" d="M 109.714844 159.335938 L 94.988281 142.929688 L 90.261719 148.964844 Z M 109.714844 159.335938 "/>
<path style="fill:none;stroke-width:1.2;stroke-linecap:butt;stroke-linejoin:miter;stroke:rgb(0%,0%,0%);stroke-opacity:1;stroke-miterlimit:10;" d="M 109.714844 159.335938 L 129.859375 151.230469 "/>
<path style="fill:none;stroke-width:1.2;stroke-linecap:butt;stroke-linejoin:miter;stroke:rgb(0%,0%,0%);stroke-opacity:1;stroke-miterlimit:10;" d="M 109.714844 159.335938 L 108.191406 170.085938 "/>
<path style="fill:none;stroke-width:1.2;stroke-linecap:butt;stroke-linejoin:miter;stroke:rgb(100%,0%,0%);stroke-opacity:1;stroke-miterlimit:10;" d="M 108.191406 170.085938 L 106.664062 180.835938 "/>
<path style="fill:none;stroke-width:1.2;stroke-linecap:butt;stroke-linejoin:miter;stroke:rgb(0%,0%,0%);stroke-opacity:1;stroke-miterlimit:10;" d="M 129.859375 151.230469 L 138.402344 157.925781 "/>
<path style="fill:none;stroke-width:1.2;stroke-linecap:butt;stroke-linejoin:miter;stroke:rgb(100%,0%,0%);stroke-opacity:1;stroke-miterlimit:10;" d="M 138.402344 157.925781 L 146.949219 164.621094 "/>
<path style="fill:none;stroke-width:1.2;stroke-linecap:butt;stroke-linejoin:miter;stroke:rgb(100%,0%,0%);stroke-opacity:1;stroke-miterlimit:10;" d="M 146.949219 164.621094 L 157.019531 160.570312 "/>
<path style="fill:none;stroke-width:1.2;stroke-linecap:butt;stroke-linejoin:miter;stroke:rgb(0%,0%,0%);stroke-opacity:1;stroke-miterlimit:10;" d="M 157.019531 160.570312 L 167.089844 156.515625 "/>
<path style=" stroke:none;fill-rule:nonzero;fill:rgb(100%,100%,100%);fill-opacity:1;" d="M 142.949219 159.121094 L 150.949219 159.121094 L 150.949219 170.121094 L 142.949219 170.121094 Z M 142.949219 159.121094 "/>
<g style="fill:rgb(100%,0%,0%);fill-opacity:1;">
  <use xlink:href="#glyph0-3" x="142.949219" y="167.78418"/>
</g>
<path style="fill:none;stroke-width:1.2;stroke-linecap:butt;stroke-linejoin:miter;stroke:rgb(0%,0%,0%);stroke-opacity:1;stroke-miterlimit:10;" d="M 167.089844 156.515625 L 170.140625 135.019531 "/>
<path style="fill:none;stroke-width:1.2;stroke-linecap:butt;stroke-linejoin:miter;stroke:rgb(0%,0%,0%);stroke-opacity:1;stroke-miterlimit:10;" d="M 172.453125 155.085938 L 174.894531 137.886719 "/>
<path style="fill:none;stroke-width:1.2;stroke-linecap:butt;stroke-linejoin:miter;stroke:rgb(0%,0%,0%);stroke-opacity:1;stroke-miterlimit:10;" d="M 184.179688 169.90625 L 167.089844 156.515625 "/>
<path style="fill:none;stroke-width:1.2;stroke-linecap:butt;stroke-linejoin:miter;stroke:rgb(0%,0%,0%);stroke-opacity:1;stroke-miterlimit:10;" d="M 170.140625 135.019531 L 190.285156 126.914062 "/>
<path style="fill:none;stroke-width:1.2;stroke-linecap:butt;stroke-linejoin:miter;stroke:rgb(0%,0%,0%);stroke-opacity:1;stroke-miterlimit:10;" d="M 190.285156 126.914062 L 207.375 140.304688 "/>
<path style="fill:none;stroke-width:1.2;stroke-linecap:butt;stroke-linejoin:miter;stroke:rgb(0%,0%,0%);stroke-opacity:1;stroke-miterlimit:10;" d="M 188.84375 132.273438 L 202.515625 142.988281 "/>
<path style="fill:none;stroke-width:1.2;stroke-linecap:butt;stroke-linejoin:miter;stroke:rgb(0%,0%,0%);stroke-opacity:1;stroke-miterlimit:10;" d="M 207.375 140.304688 L 204.324219 161.800781 "/>
<path style="fill:none;stroke-width:1.2;stroke-linecap:butt;stroke-linejoin:miter;stroke:rgb(0%,0%,0%);stroke-opacity:1;stroke-miterlimit:10;" d="M 207.375 140.304688 L 227.515625 132.199219 "/>
<path style="fill:none;stroke-width:1.2;stroke-linecap:butt;stroke-linejoin:miter;stroke:rgb(0%,0%,0%);stroke-opacity:1;stroke-miterlimit:10;" d="M 204.324219 161.800781 L 184.179688 169.90625 "/>
<path style="fill:none;stroke-width:1.2;stroke-linecap:butt;stroke-linejoin:miter;stroke:rgb(0%,0%,0%);stroke-opacity:1;stroke-miterlimit:10;" d="M 200.402344 157.875 L 184.289062 164.359375 "/>
<path style="fill:none;stroke-width:1.2;stroke-linecap:butt;stroke-linejoin:miter;stroke:rgb(0%,0%,0%);stroke-opacity:1;stroke-miterlimit:10;" d="M 227.515625 132.199219 L 244.609375 145.589844 "/>
<path style="fill:none;stroke-width:1.2;stroke-linecap:butt;stroke-linejoin:miter;stroke:rgb(0%,0%,0%);stroke-opacity:1;stroke-miterlimit:10;" d="M 242.078125 145.230469 L 240.554688 155.980469 "/>
<path style="fill:none;stroke-width:1.2;stroke-linecap:butt;stroke-linejoin:miter;stroke:rgb(100%,0%,0%);stroke-opacity:1;stroke-miterlimit:10;" d="M 240.554688 155.980469 L 239.027344 166.726562 "/>
<path style="fill:none;stroke-width:1.2;stroke-linecap:butt;stroke-linejoin:miter;stroke:rgb(0%,0%,0%);stroke-opacity:1;stroke-miterlimit:10;" d="M 247.136719 145.949219 L 245.609375 156.699219 "/>
<path style="fill:none;stroke-width:1.2;stroke-linecap:butt;stroke-linejoin:miter;stroke:rgb(100%,0%,0%);stroke-opacity:1;stroke-miterlimit:10;" d="M 245.609375 156.699219 L 244.085938 167.445312 "/>
<path style="fill:none;stroke-width:1.2;stroke-linecap:butt;stroke-linejoin:miter;stroke:rgb(0%,0%,0%);stroke-opacity:1;stroke-miterlimit:10;" d="M 244.609375 145.589844 L 254.679688 141.539062 "/>
<path style="fill:none;stroke-width:1.2;stroke-linecap:butt;stroke-linejoin:miter;stroke:rgb(0%,0%,100%);stroke-opacity:1;stroke-miterlimit:10;" d="M 254.679688 141.539062 L 264.75 137.484375 "/>
<path style=" stroke:none;fill-rule:nonzero;fill:rgb(100%,100%,100%);fill-opacity:1;" d="M 237.554688 161.585938 L 245.554688 161.585938 L 245.554688 172.585938 L 237.554688 172.585938 Z M 237.554688 161.585938 "/>
<g style="fill:rgb(100%,0%,0%);fill-opacity:1;">
  <use xlink:href="#glyph0-3" x="237.554688" y="170.249023"/>
</g>
<path style=" stroke:none;fill-rule:nonzero;fill:rgb(100%,100%,100%);fill-opacity:1;" d="M 255.75 129.484375 L 274.75 129.484375 L 274.75 145.484375 L 255.75 145.484375 Z M 255.75 129.484375 "/>
<g style="fill:rgb(0%,0%,100%);fill-opacity:1;">
  <use xlink:href="#glyph0-1" x="255.75" y="138.147461"/>
  <use xlink:href="#glyph0-2" x="262.727539" y="138.147461"/>
</g>
<g style="fill:rgb(0%,0%,100%);fill-opacity:1;">
  <use xlink:href="#glyph1-1" x="269.742188" y="143.030273"/>
</g>
<path style=" stroke:none;fill-rule:nonzero;fill:rgb(100%,100%,100%);fill-opacity:1;" d="M 99.664062 175.335938 L 114.664062 175.335938 L 114.664062 186.335938 L 99.664062 186.335938 Z M 99.664062 175.335938 "/>
<g style="fill:rgb(100%,0%,0%);fill-opacity:1;">
  <use xlink:href="#glyph0-2" x="99.664062" y="183.999023"/>
  <use xlink:href="#glyph0-3" x="106.678711" y="183.999023"/>
</g>
</g>
</svg>

<svg xmlns="http://www.w3.org/2000/svg" xmlns:xlink="http://www.w3.org/1999/xlink" width="300pt" height="300pt" viewBox="0 0 300 300"><defs><symbol overflow="visible"><path d="M.453 1.594v-7.938h4.5v7.938zm.5-.5h3.5v-6.938h-3.5zm0 0"/></symbol><symbol overflow="visible" id="a"><path d="M.89-6.563H2.08l2.906 5.485v-5.484h.86V0H4.656L1.75-5.484V0H.89zm0 0"/></symbol><symbol overflow="visible" id="b"><path d="M.89-6.563h.876v2.688H5v-2.688h.89V0H5v-3.125H1.766V0H.89zm0 0"/></symbol><symbol overflow="visible" id="c"><path d="M3.547-5.953c-.65 0-1.164.242-1.547.72-.375.48-.563 1.13-.563 1.952 0 .835.188 1.49.563 1.967.383.48.898.72 1.547.72.644 0 1.156-.24 1.53-.72.376-.476.564-1.132.564-1.968 0-.822-.187-1.474-.562-1.954-.375-.477-.887-.72-1.53-.72zm0-.734c.914 0 1.648.312 2.203.937.55.617.828 1.438.828 2.47 0 1.042-.277 1.87-.828 2.483-.555.617-1.29.922-2.203.922-.93 0-1.668-.305-2.22-.922C.774-1.41.5-2.237.5-3.28c0-1.033.273-1.853.828-2.47.55-.625 1.29-.938 2.22-.938zm0 0"/></symbol><symbol overflow="visible"><path d="M.406 1.422V-5.64h4V1.42zM.844.97h3.11v-6.157H.843zm0 0"/></symbol><symbol overflow="visible" id="d"><path d="M1.53-.672h2.767V0H.594v-.672c.29-.3.695-.71 1.22-1.234.518-.532.842-.867.967-1.016.26-.28.44-.52.533-.72.1-.194.156-.39.156-.577 0-.31-.11-.565-.33-.764-.218-.196-.5-.297-.843-.297-.25 0-.516.046-.797.14-.273.085-.563.214-.875.39v-.797c.32-.133.617-.234.89-.297.282-.062.536-.093.766-.093.603 0 1.083.152 1.44.453.362.304.546.703.546 1.203 0 .24-.047.468-.14.686-.095.22-.26.477-.485.766-.074.074-.288.293-.64.656-.344.356-.836.856-1.47 1.5zm0 0"/></symbol></defs><g><path fill="#fff" d="M0 0h300v300H0z"/><path d="M35.25 148.77l20.14-8.106M55.39 140.664l3.055-21.5M55.39 140.664l8.547 6.695" stroke-width="1.2" stroke="#000" stroke-miterlimit="10" fill="none"/><path d="M63.938 147.36l8.546 6.695M72.484 154.055L82.554 150" stroke-width="1.2" stroke="#00f" stroke-miterlimit="10" fill="none"/><path d="M82.555 150l10.07-4.055" stroke-width="1.2" stroke="#000" stroke-miterlimit="10" fill="none"/><path d="M65.484 148.555h14v11h-14zm0 0" fill="#fff"/><g fill="#00f"><use xlink:href="#a" x="65.484" y="157.218"/><use xlink:href="#b" x="72.462" y="157.218"/></g><path d="M109.715 159.336L94.988 142.93l-4.726 6.035zm0 0"/><path d="M109.715 159.336l20.144-8.106M109.715 159.336l-1.524 10.75" stroke-width="1.2" stroke="#000" stroke-miterlimit="10" fill="none"/><path d="M108.19 170.086l-1.526 10.75" stroke-width="1.2" stroke="#f00" stroke-miterlimit="10" fill="none"/><path d="M129.86 151.23l8.542 6.696" stroke-width="1.2" stroke="#000" stroke-miterlimit="10" fill="none"/><path d="M138.402 157.926l8.547 6.695M146.95 164.62l10.07-4.05" stroke-width="1.2" stroke="#f00" stroke-miterlimit="10" fill="none"/><path d="M157.02 160.57l10.07-4.054" stroke-width="1.2" stroke="#000" stroke-miterlimit="10" fill="none"/><path d="M142.95 159.12h8v11h-8zm0 0" fill="#fff"/><use xlink:href="#c" x="142.949" y="167.784" fill="#f00"/><path d="M167.09 156.516l3.05-21.496M172.453 155.086l2.442-17.2M184.18 169.906l-17.09-13.39M170.14 135.02l20.145-8.106M190.285 126.914l17.09 13.39M188.844 132.273l13.672 10.715M207.375 140.305l-3.05 21.496M207.375 140.305l20.14-8.106M204.324 161.8l-20.144 8.106M200.402 157.875l-16.113 6.484M227.516 132.2l17.093 13.39M242.078 145.23l-1.523 10.75" stroke-width="1.2" stroke="#000" stroke-miterlimit="10" fill="none"/><path d="M240.555 155.98l-1.528 10.747" stroke-width="1.2" stroke="#f00" stroke-miterlimit="10" fill="none"/><path d="M247.137 145.95l-1.528 10.75" stroke-width="1.2" stroke="#000" stroke-miterlimit="10" fill="none"/><path d="M245.61 156.7l-1.524 10.745" stroke-width="1.2" stroke="#f00" stroke-miterlimit="10" fill="none"/><path d="M244.61 145.59l10.07-4.05" stroke-width="1.2" stroke="#000" stroke-miterlimit="10" fill="none"/><path d="M254.68 141.54l10.07-4.056" stroke-width="1.2" stroke="#00f" stroke-miterlimit="10" fill="none"/><path d="M237.555 161.586h8v11h-8zm0 0" fill="#fff"/><use xlink:href="#c" x="237.555" y="170.249" fill="#f00"/><path d="M255.75 129.484h19v16h-19zm0 0" fill="#fff"/><g fill="#00f"><use xlink:href="#a" x="255.75" y="138.147"/><use xlink:href="#b" x="262.728" y="138.147"/></g><use xlink:href="#d" x="269.742" y="143.03" fill="#00f"/><path d="M99.664 175.336h15v11h-15zm0 0" fill="#fff"/><g fill="#f00"><use xlink:href="#b" x="99.664" y="183.999"/><use xlink:href="#c" x="106.679" y="183.999"/></g></g></svg>
